volume-plus.svg

<svg fill="currentColor" viewBox="0 0 24 24"><path d="M3 9h4l5-5v16l-5-5H3zm11 2h3V8h2v3h3v2h-3v3h-2v-3h-3z"/></svg>

<svg  viewBox="0 0 24 24" fill="currentColor"><path  d="M3,9H7L12,4V20L7,15H3V9M14,11H17V8H19V11H22V13H19V16H17V13H14V11Z"/></svg>
